src/assets/images/homepage/home/partner_logo_14.svg

<svg fill="none" height="89" viewBox="0 0 89 89" width="89" xmlns="http://www.w3.org/2000/svg" xmlns:xlink="http://www.w3.org/1999/xlink"><clipPath id="a"><path d="m16.2148 28h56v37h-56z"/></clipPath><circle cx="44.2225" cy="44.2225" fill="#fff" r="44.2225"/><g clip-path="url(#a)" fill="#31e530"><path d="m16.2148 35.3916v12.876l11.5148 6.7122v-12.9238z"/><path d="m31.7609 44.1665v-.0174c0-.0653.0139-.1262.0324-.1828v-.0087c.0185-.061.0462-.1176.0786-.1741 0 0 0 0 0-.0044.0371-.0522.0787-.1045.125-.1524.0463-.0435.1018-.087.1666-.1175h.0046l8.4417-4.5053-.0093-3.0644-11.2416 6.142v12.8368l2.3973-1.5366v-9.2021z"/><path d="m28.3125 28-11.311 6.0419 11.5563 6.6948 11.2648-6.1507z"/><path d="m72.2149 49.8125v-11.8574l-25.6397 14.2907v12.7541z"/><path d="m38.948 48.7637-5.5491-3.2168v6.7732.9315 4.9275l11.5425 6.8211v-12.7629l-4.4707-2.59-.759-.444"/><path d="m60.3667 30.2202-18.1097 9.6722-.8192.4353-.8146.4353-6.4377 3.4388 6.2434 3.613.7636.444.759.4396 3.8228 2.2113 25.6767-14.3168-11.0843-6.3771z"/></g></svg>

<svg width="89" height="89" viewBox="0 0 89 89" fill="none" xmlns="http://www.w3.org/2000/svg">
<circle cx="44.2225" cy="44.2225" r="44.2225" fill="white"/>
<g clip-path="url(#clip0_5626_12368)">
<path d="M16.2148 35.3916V48.2676L27.7296 54.9798V42.056L16.2148 35.3916Z" fill="#31E530"/>
<path d="M31.7609 44.1665V44.1491C31.7609 44.0838 31.7748 44.0229 31.7933 43.9663V43.9576C31.8118 43.8966 31.8395 43.84 31.8719 43.7835C31.8719 43.7835 31.8719 43.7835 31.8719 43.7791C31.909 43.7269 31.9506 43.6746 31.9969 43.6267C32.0432 43.5832 32.0987 43.5397 32.1635 43.5092C32.1635 43.5092 32.1635 43.5092 32.1681 43.5092L40.6098 39.0039L40.6005 35.9395L29.3589 42.0815V54.9183L31.7562 53.3817V44.1796L31.7609 44.1665Z" fill="#31E530"/>
<path d="M28.3125 28L17.0015 34.0419L28.5578 40.7367L39.8226 34.586L28.3125 28Z" fill="#31E530"/>
<path d="M72.2149 49.8125V37.9551L46.5752 52.2458V64.9999L72.2149 49.8125Z" fill="#31E530"/>
<path d="M38.948 48.7637L33.3989 45.5469V52.3201V53.2516V58.1791L44.9414 65.0002V52.2373L40.4707 49.6473L39.7117 49.2033" fill="#31E530"/>
<path d="M60.3667 30.2202L42.257 39.8924L41.4378 40.3277L40.6232 40.763L34.1855 44.2018L40.4289 47.8148L41.1925 48.2588L41.9515 48.6984L45.7743 50.9097L71.451 36.5929L60.3667 30.2158V30.2202Z" fill="#31E530"/>
</g>
<defs>
<clipPath id="clip0_5626_12368">
<rect width="56" height="37" fill="white" transform="translate(16.2148 28)"/>
</clipPath>
</defs>
</svg>
